Flat-Remix-Dark/apps/scalable/mono.svg

<svg xmlns="http://www.w3.org/2000/svg" xmlns:xlink="http://www.w3.org/1999/xlink" width="384pt" height="384pt" version="1.1" viewBox="0 0 384 384">
 <defs>
  <filter id="alpha" width="100%" height="100%" x="0%" y="0%" filterUnits="objectBoundingBox">
   <feColorMatrix in="SourceGraphic" type="matrix" values="0 0 0 0 1 0 0 0 0 1 0 0 0 0 1 0 0 0 1 0"/>
  </filter>
  <mask id="mask2">
   <g filter="url(#alpha)">
    <rect style="fill:rgb(0%,0%,0%);fill-opacity:0.2" width="384" height="384" x="0" y="0"/>
   </g>
  </mask>
  <clipPath id="clip3">
   <rect width="384" height="384" x="0" y="0"/>
  </clipPath>
  <g id="surface11" clip-path="url(#clip3)">
   <path d="M 112.277344 293.65625 C 112.277344 292.46875 152.347656 244.246094 153.203125 244.441406 C 153.679688 244.570312 171.605469 252.167969 192.976562 261.355469 C 229.53125 277.054688 229.570312 277.992188 230.542969 276.679688 C 232.042969 274.644531 237.199219 264.484375 239.914062 257.675781 L 242.226562 251.886719 L 238.355469 249.757812 C 232.828125 246.757812 227.128906 240.03125 222.070312 234.246094 C 217.445312 228.960938 209.105469 216.234375 209.105469 214.445312 C 209.105469 213.859375 211.757812 216.546875 215.011719 220.421875 C 224.101562 231.238281 242.671875 248.257812 243.976562 245.84375 C 245.539062 242.96875 246.570312 234.523438 246.503906 224.699219 C 246.445312 212.730469 244.882812 204.007812 240.757812 191.152344 L 238.445312 186 C 230.527344 181.265625 224.226562 178.710938 215.503906 175.960938 C 210.570312 174.394531 213.664062 174.484375 220.847656 176.117188 C 229.46875 178.054688 240.054688 179.652344 245.460938 180.335938 C 250.273438 180.929688 251.296875 179.992188 251.800781 174.707031 C 252.457031 167.921875 248.117188 150.367188 243.679688 141.070312 C 241.925781 137.351562 241.117188 136.511719 237.582031 134.910156 C 225.863281 129.4375 187.308594 124.433594 171.714844 126.066406 C 164.964844 126.757812 158.058594 128.410156 155.875 129.785156 C 155.285156 130.261719 159.625 131.316406 167.089844 132.695312 C 173.808594 133.945312 178.710938 135.035156 177.988281 135.222656 C 177.175781 135.347656 166.679688 134.789062 154.46875 133.230469 C 133.097656 130.476562 130.511719 131.824219 128.957031 133.199219 C 125.824219 136.019531 121.398438 139.265625 120.449219 143.386719 C 119.578125 147.359375 119.640625 147.828125 121.613281 151.867188 C 124.984375 158.773438 133.097656 163.804688 147.371094 171.035156 C 154.121094 174.539062 159.496094 177.414062 159.304688 177.628906 C 159.089844 177.816406 153.304688 175.660156 146.496094 172.8125 L 134.023438 167.652344 L 115.746094 172.78125 C 105.71875 175.566406 97.15625 177.882812 96.75 177.882812 C 96.246094 177.882812 96 165.742188 96 145.171875 C 96 113.683594 96.066406 112.367188 97.625 109.152344 C 98.554688 107.179688 100.402344 105.085938 102.058594 104.082031 L 104.933594 102.300781 L 188.605469 102.046875 C 234.59375 101.921875 274.175781 102.046875 276.402344 102.300781 C 281.53125 102.925781 286.152344 106.675781 287.371094 111.203125 C 287.898438 113.179688 288.089844 142.980469 287.957031 199.660156 L 287.742188 285.058594 L 285.960938 287.898438 C 284.929688 289.589844 282.835938 291.433594 280.894531 292.375 C 277.621094 293.96875 276.960938 294 195.011719 294 C 149.578125 294 112.375 293.71875 112.375 293.40625" style="fill:rgb(0%,0%,0%)"/>
  </g>
 </defs>
 <g transform="matrix(1.0044643,0,0,1.0044643,-0.8571456,-0.85714545)">
  <path d="M 360,342 V 42 c 0,-9.941406 -8.05859,-18 -18,-18 H 42 c -9.941406,0 -18,8.058594 -18,18 v 300 c 0,9.94141 8.058594,18 18,18 h 300 c 9.94141,0 18,-8.05859 18,-18 z m 0,0" style="fill:#213554"/>
  <use width="100%" height="100%" x="0" y="0" mask="url(#mask2)" xlink:href="#surface11"/>
  <path d="m 112.27734,287.65625 c 0,-1.18359 40.07032,-49.40625 40.92578,-49.21484 0.47266,0.1289 18.40625,7.72656 39.77735,16.91796 36.55078,15.69532 36.59375,16.63282 37.5625,15.32032 1.5039,-2.03516 6.65234,-12.19141 9.37109,-19.00391 l 2.3125,-5.78516 -3.87109,-2.1289 c -5.52735,-3.00391 -11.22266,-9.72656 -16.28516,-15.51563 -4.625,-5.28125 -12.96484,-18.01172 -12.96484,-19.79687 0,-0.58985 2.65234,2.09765 5.90234,5.97265 9.09375,10.82422 27.66016,27.83204 28.97266,25.42579 1.55859,-2.875 2.58984,-11.32032 2.52734,-21.14454 -0.0664,-11.97265 -1.625,-20.6914 -5.7539,-33.54687 L 238.44531,180 c -7.92187,-4.73047 -14.21875,-7.28906 -22.9414,-10.03906 -4.9375,-1.5586 -1.83985,-1.47266 5.34375,0.16015 8.62109,1.9375 19.20703,3.53125 24.61328,4.21875 4.8125,0.59375 5.83593,-0.34375 6.33984,-5.6289 0.65625,-6.78516 -3.68359,-24.33985 -8.125,-33.63282 -1.75,-3.72265 -2.55859,-4.5625 -6.09375,-6.16406 -11.71875,-5.47656 -50.27344,-10.48047 -65.87109,-8.84765 -6.75,0.6875 -13.65235,2.34765 -15.83594,3.72265 -0.58984,0.47266 3.75,1.53125 11.21484,2.90625 6.71875,1.25 11.6211,2.34375 10.90235,2.53125 -0.81641,0.125 -11.3125,-0.43359 -23.52344,-1.99218 -21.37109,-2.75391 -23.95313,-1.41016 -25.51172,-0.0312 -3.1289,2.8164 -7.55859,6.06249 -8.5039,10.18749 -0.8711,3.96875 -0.81641,4.44141 1.16015,8.47657 3.375,6.90625 11.48438,11.9414 25.75781,19.17187 6.75391,3.50391 12.12891,6.37891 11.9336,6.59375 -0.21485,0.1836 -5.9961,-1.96875 -12.8125,-4.8164 l -12.46875,-5.16407 -18.27735,5.12891 c -10.02734,2.78906 -18.585934,5.10156 -18.99609,5.10156 -0.503906,0 -0.75,-12.13672 -0.75,-32.70703 0,-31.49219 0.0625,-32.80469 1.625,-36.02344 0.933594,-1.96875 2.78125,-4.066402 4.4375,-5.066402 l 2.87109,-1.785157 83.67188,-0.25 c 45.98828,-0.128906 85.57422,0 87.79687,0.25 5.12891,0.621094 9.75,4.378909 10.96485,8.906249 0.52734,1.97266 0.72265,31.77344 0.59375,88.45703 l -0.21485,85.39844 -1.78515,2.83984 c -1.03125,1.6875 -3.12891,3.53125 -5.0625,4.47657 -3.28125,1.58984 -3.9375,1.625 -85.88672,1.625 -45.42969,0 -82.64063,-0.28125 -82.64063,-0.59375" style="fill:#ffffff"/>
 </g>
 <path d="m 23.25,335.13616 v 7.53348 c 0,9.98579 8.094576,18.08036 18.080357,18.08036 H 342.66964 c 9.98579,0 18.08036,-8.09457 18.08036,-18.08036 v -7.53348 c 0,9.98579 -8.09457,18.08036 -18.08036,18.08036 H 41.330357 C 31.344566,353.21652 23.25,345.12195 23.25,335.13616 Z"/>
 <path d="M 41.330357,23.249997 C 31.344566,23.249997 23.25,31.344563 23.25,41.330354 v 7.533482 c 0,-9.98578 8.094576,-18.080357 18.080357,-18.080357 H 342.66964 c 9.98579,0 18.08036,8.094577 18.08036,18.080357 v -7.533482 c 0,-9.985791 -8.09457,-18.080357 -18.08036,-18.080357 z" style="opacity:0.3;fill:#ffffff"/>
</svg>

<svg xmlns="http://www.w3.org/2000/svg" xmlns:xlink="http://www.w3.org/1999/xlink" width="384pt" height="384pt" version="1.1" viewBox="0 0 384 384">
 <defs>
  <filter id="alpha" width="100%" height="100%" x="0%" y="0%" filterUnits="objectBoundingBox">
   <feColorMatrix in="SourceGraphic" type="matrix" values="0 0 0 0 1 0 0 0 0 1 0 0 0 0 1 0 0 0 1 0"/>
  </filter>
  <mask id="mask0">
   <g filter="url(#alpha)">
    <rect width="384" height="384" x="0" y="0" style="fill:rgb(0%,0%,0%);fill-opacity:0.2"/>
   </g>
  </mask>
  <clipPath id="clip1">
   <rect width="384" height="384" x="0" y="0"/>
  </clipPath>
  <g id="surface5" clip-path="url(#clip1)">
   <path style="fill:rgb(0%,0%,0%)" d="M 360 348 L 360 48 C 360 38.058594 351.941406 30 342 30 L 42 30 C 32.058594 30 24 38.058594 24 48 L 24 348 C 24 357.941406 32.058594 366 42 366 L 342 366 C 351.941406 366 360 357.941406 360 348 Z M 360 348"/>
  </g>
  <mask id="mask1">
   <g filter="url(#alpha)">
    <rect width="384" height="384" x="0" y="0" style="fill:rgb(0%,0%,0%);fill-opacity:0.101961"/>
   </g>
  </mask>
  <clipPath id="clip2">
   <rect width="384" height="384" x="0" y="0"/>
  </clipPath>
  <g id="surface8" clip-path="url(#clip2)">
   <path style="fill:rgb(100%,100%,100%)" d="M 42 24 C 32.027344 24 24 32.027344 24 42 L 24 48 C 24 38.027344 32.027344 30 42 30 L 342 30 C 351.972656 30 360 38.027344 360 48 L 360 42 C 360 32.027344 351.972656 24 342 24 Z M 42 24"/>
  </g>
  <mask id="mask2">
   <g filter="url(#alpha)">
    <rect width="384" height="384" x="0" y="0" style="fill:rgb(0%,0%,0%);fill-opacity:0.2"/>
   </g>
  </mask>
  <clipPath id="clip3">
   <rect width="384" height="384" x="0" y="0"/>
  </clipPath>
  <g id="surface11" clip-path="url(#clip3)">
   <path style="fill:rgb(0%,0%,0%)" d="M 112.277344 293.65625 C 112.277344 292.46875 152.347656 244.246094 153.203125 244.441406 C 153.679688 244.570312 171.605469 252.167969 192.976562 261.355469 C 229.53125 277.054688 229.570312 277.992188 230.542969 276.679688 C 232.042969 274.644531 237.199219 264.484375 239.914062 257.675781 L 242.226562 251.886719 L 238.355469 249.757812 C 232.828125 246.757812 227.128906 240.03125 222.070312 234.246094 C 217.445312 228.960938 209.105469 216.234375 209.105469 214.445312 C 209.105469 213.859375 211.757812 216.546875 215.011719 220.421875 C 224.101562 231.238281 242.671875 248.257812 243.976562 245.84375 C 245.539062 242.96875 246.570312 234.523438 246.503906 224.699219 C 246.445312 212.730469 244.882812 204.007812 240.757812 191.152344 L 238.445312 186 C 230.527344 181.265625 224.226562 178.710938 215.503906 175.960938 C 210.570312 174.394531 213.664062 174.484375 220.847656 176.117188 C 229.46875 178.054688 240.054688 179.652344 245.460938 180.335938 C 250.273438 180.929688 251.296875 179.992188 251.800781 174.707031 C 252.457031 167.921875 248.117188 150.367188 243.679688 141.070312 C 241.925781 137.351562 241.117188 136.511719 237.582031 134.910156 C 225.863281 129.4375 187.308594 124.433594 171.714844 126.066406 C 164.964844 126.757812 158.058594 128.410156 155.875 129.785156 C 155.285156 130.261719 159.625 131.316406 167.089844 132.695312 C 173.808594 133.945312 178.710938 135.035156 177.988281 135.222656 C 177.175781 135.347656 166.679688 134.789062 154.46875 133.230469 C 133.097656 130.476562 130.511719 131.824219 128.957031 133.199219 C 125.824219 136.019531 121.398438 139.265625 120.449219 143.386719 C 119.578125 147.359375 119.640625 147.828125 121.613281 151.867188 C 124.984375 158.773438 133.097656 163.804688 147.371094 171.035156 C 154.121094 174.539062 159.496094 177.414062 159.304688 177.628906 C 159.089844 177.816406 153.304688 175.660156 146.496094 172.8125 L 134.023438 167.652344 L 115.746094 172.78125 C 105.71875 175.566406 97.15625 177.882812 96.75 177.882812 C 96.246094 177.882812 96 165.742188 96 145.171875 C 96 113.683594 96.066406 112.367188 97.625 109.152344 C 98.554688 107.179688 100.402344 105.085938 102.058594 104.082031 L 104.933594 102.300781 L 188.605469 102.046875 C 234.59375 101.921875 274.175781 102.046875 276.402344 102.300781 C 281.53125 102.925781 286.152344 106.675781 287.371094 111.203125 C 287.898438 113.179688 288.089844 142.980469 287.957031 199.660156 L 287.742188 285.058594 L 285.960938 287.898438 C 284.929688 289.589844 282.835938 291.433594 280.894531 292.375 C 277.621094 293.96875 276.960938 294 195.011719 294 C 149.578125 294 112.375 293.71875 112.375 293.40625"/>
  </g>
 </defs>
 <g>
  <use mask="url(#mask0)" xlink:href="#surface5"/>
  <path style="fill:rgb(29.019608%,33.333333%,47.45098%)" d="M 360 342 L 360 42 C 360 32.058594 351.941406 24 342 24 L 42 24 C 32.058594 24 24 32.058594 24 42 L 24 342 C 24 351.941406 32.058594 360 42 360 L 342 360 C 351.941406 360 360 351.941406 360 342 Z M 360 342"/>
  <use mask="url(#mask1)" xlink:href="#surface8"/>
  <use mask="url(#mask2)" xlink:href="#surface11"/>
  <path style="fill:rgb(100%,100%,100%)" d="M 112.277344 287.65625 C 112.277344 286.472656 152.347656 238.25 153.203125 238.441406 C 153.675781 238.570312 171.609375 246.167969 192.980469 255.359375 C 229.53125 271.054688 229.574219 271.992188 230.542969 270.679688 C 232.046875 268.644531 237.195312 258.488281 239.914062 251.675781 L 242.226562 245.890625 L 238.355469 243.761719 C 232.828125 240.757812 227.132812 234.035156 222.070312 228.246094 C 217.445312 222.964844 209.105469 210.234375 209.105469 208.449219 C 209.105469 207.859375 211.757812 210.546875 215.007812 214.421875 C 224.101562 225.246094 242.667969 242.253906 243.980469 239.847656 C 245.539062 236.972656 246.570312 228.527344 246.507812 218.703125 C 246.441406 206.730469 244.882812 198.011719 240.753906 185.15625 L 238.445312 180 C 230.523438 175.269531 224.226562 172.710938 215.503906 169.960938 C 210.566406 168.402344 213.664062 168.488281 220.847656 170.121094 C 229.46875 172.058594 240.054688 173.652344 245.460938 174.339844 C 250.273438 174.933594 251.296875 173.996094 251.800781 168.710938 C 252.457031 161.925781 248.117188 144.371094 243.675781 135.078125 C 241.925781 131.355469 241.117188 130.515625 237.582031 128.914062 C 225.863281 123.4375 187.308594 118.433594 171.710938 120.066406 C 164.960938 120.753906 158.058594 122.414062 155.875 123.789062 C 155.285156 124.261719 159.625 125.320312 167.089844 126.695312 C 173.808594 127.945312 178.710938 129.039062 177.992188 129.226562 C 177.175781 129.351562 166.679688 128.792969 154.46875 127.234375 C 133.097656 124.480469 130.515625 125.824219 128.957031 127.203125 C 125.828125 130.019531 121.398438 133.265625 120.453125 137.390625 C 119.582031 141.359375 119.636719 141.832031 121.613281 145.867188 C 124.988281 152.773438 133.097656 157.808594 147.371094 165.039062 C 154.125 168.542969 159.5 171.417969 159.304688 171.632812 C 159.089844 171.816406 153.308594 169.664062 146.492188 166.816406 L 134.023438 161.652344 L 115.746094 166.78125 C 105.71875 169.570312 97.160156 171.882812 96.75 171.882812 C 96.246094 171.882812 96 159.746094 96 139.175781 C 96 107.683594 96.0625 106.371094 97.625 103.152344 C 98.558594 101.183594 100.40625 99.085938 102.0625 98.085938 L 104.933594 96.300781 L 188.605469 96.050781 C 234.59375 95.921875 274.179688 96.050781 276.402344 96.300781 C 281.53125 96.921875 286.152344 100.679688 287.367188 105.207031 C 287.894531 107.179688 288.089844 136.980469 287.960938 193.664062 L 287.746094 279.0625 L 285.960938 281.902344 C 284.929688 283.589844 282.832031 285.433594 280.898438 286.378906 C 277.617188 287.96875 276.960938 288.003906 195.011719 288.003906 C 149.582031 288.003906 112.371094 287.722656 112.371094 287.410156"/>
 </g>
</svg>
